X:2589
L:1/8
Q:1/8=130
M:4/4
K:D
 a>f | d2 dd d2 cd | edef d2 ag | fagf egfe | dcec A2 F2 | G2 GG e2 e2 | F2 FF d3 d | cdef edcB |1 
 A2 AB A2 :|2 A2 AB AGFE || D2 A,2 F2 A,2 | GFGA G2 FE | FAdc BAGF | EDEF EGFE | D2 d2 F2 f2 | 
 A2 a2 a2 gf |1 edef edcB | A2 AB AGFE :|2 edef dcBc | d2 de !fermata!d4 |]

